X:234
T:Jeanette & Jeannot Quadrilles No.1. Le4.234
M:2/4
L:1/8
Q:2/4=60
B:L.Leadley MS#4 c1850
Z:Village Music Project 2016 Steve Mansfield
K:D
ff/e/ d/e/f/g/ | c'{c'}d' a2 | f{^g}a d{^e}f | {f}e/^d/e/f/ ea |
f/g/f/e/ d/e/f/g/ | a{c'}d' a2 | f{^g}a d{^e}f | {f}e/d/e/f/ =dz H||
ff/f/ ff | df d2 | aa/a/ aa | fa f2 |
d'd'/d'/ d'd' | d'd'/d'/ d'd' | c'd'/c'/ bc'/b/ | a A/B/ c/d/e/^e/ !D.C.! ||
[K:G]
d | g>ga>a | d'>b gb/g/ | e c'2 a/f/ | g/f/g/a/ gd/d/ |
g>ga>a | d'>b gb/g/ | e c'2 a/f/ | g2 za/g/ !D.C.! |]

